!!!AGN: Motet
!!!SCT: Nugent (1982)
!!!voices: 4
!!!COM: Jachet of Mantua
!!!OTL: Alleluia surrexit Dominus
**kern	**kern	**kern	**kern
*part4	*part3	*part2	*part1
*staff4	*staff3	*staff2	*staff1
*I"Bassus	*I"Tenor	*I"Altus	*I"Superius
*I'B	*I'T	*I'A	*I'S
*clefF4	*clefGv2	*clefGv2	*clefG2
*k[b-]	*k[b-]	*k[b-]	*k[b-]
*F:	*F:	*F:	*F:
*M2/1	*M2/1	*M2/1	*M2/1
*met(C|)	*met(C|)	*met(C|)	*met(C|)
!!section: Prima pars: Alleluia surrexit Dominus
!!!OMD: Prima pars: Alleluia surrexit Dominus
0r	0r	0r	1.f
.	.	.	2e
=1	=1	=1	=1
0r	0r	2r	1d
.	.	1f	.
.	.	.	2c
.	.	2e	[2cc
=2	=2	=2	=2
0r	0r	1d	2cc]
.	.	.	2b-y
.	.	1c	2.a
.	.	.	4g
=3	=3	=3	=3
0r	0r	2r	4a
.	.	.	4f
.	.	1B-y	2.g
.	.	.	4f
.	.	2A	[2f
=4	=4	=4	=4
0r	1r	1G	2f]
.	.	.	2e
.	2r	1F	1f
.	[2F	.	.
=5	=5	=5	=5
1r	2F]	0r	0r
.	2E	.	.
2r	1D	.	.
[2F	.	.	.
=6	=6	=6	=6
2F]	2C	0r	0r
2E	1c	.	.
1D	.	.	.
.	2B-y	.	.
=7	=7	=7	=7
1C	2.A	0r	0r
.	4G	.	.
2r	4A	.	.
.	4F	.	.
[2BB-y	[2G	.	.
=8	=8	=8	=8
2BB-]	4G]	0r	1r
.	4F	.	.
2AA	1F	.	.
1GG	.	.	2r
.	2E	.	[2b-y
=9	=9	=9	=9
2FF	1F	0r	2b-]
1F	.	.	2a
.	2r	.	1g
2E	[2B-y	.	.
=10	=10	=10	=10
1F	2B-]	0r	2f
.	2A	.	1cc
1r	1G	.	.
.	.	.	2b-y
=11	=11	=11	=11
2r	2F	2r	2.a
1F	1.c	1f	.
.	.	.	4g
.	.	.	4a
.	.	.	4f
2C	.	2e	[2g
=12	=12	=12	=12
2D	2A	1d	4g]
.	.	.	4f
2BB-y	2B-y	.	1f
1C	1G	[1c	.
.	.	.	2e
=13	=13	=13	=13
2FF	2.F	1c]	2.a
1F	.	.	.
.	4E	.	4g
.	2D	2r	4a
.	.	.	4f
2E	2C	2G	[2g
=14	=14	=14	=14
1D	1F	2.A	4g]
.	.	.	4f
.	.	.	1f
.	.	4B-y	.
1C	1G	2c	.
.	.	2G	2e
=15	=15	=15	=15
1FF	0F	2.A	0f
.	.	4B-y	.
2r	.	1c	.
2FF	.	.	.
=16	=16	=16	=16
2GG	2r	0r	0r
2AA	2C	.	.
2BB-y	2D	.	.
2C	2E	.	.
=17	=17	=17	=17
2D	2F	0r	0r
2E	2G	.	.
2F	2A	.	.
2G	2B-y	.	.
=18	=18	=18	=18
2.A	2.c	0r	0r
4G	4B-y	.	.
4F	4A	.	.
4E	4G	.	.
[2G	[2B-y	.	.
=19	=19	=19	=19
4G]	4B-]	2.B-y	0r
4F	4A	.	.
1F	4G	.	.
.	4F	4B-y	.
.	2G	2B-y	.
2E	2G	2B-y	.
=20	=20	=20	=20
2.F	0F	1A	2.f
4F	.	.	4f
2F	.	[1c	2f
2F	.	.	2f
=21	=21	=21	=21
2C	1r	2c]	1e
2C	.	2c	.
[1G	2.B-y	1d	[1g
.	4B-y	.	.
=22	=22	=22	=22
2G]	2B-y	2r	2g]
2G	2B-y	2d	2g
2F	1A	2d	2a
2F	.	[2c	2a
=23	=23	=23	=23
1F	1.c	4c]	2a
.	.	4B-y	.
.	.	1A	4g
.	.	.	4f
1E	.	.	1g
.	2c	2G	.
=24	=24	=24	=24
1.D	2d	2A	1f
.	2d	4F	.
.	.	4G	.
.	1d	4A	2r
.	.	4F	.
2BB-y	.	[2B-y	[2f
=25	=25	=25	=25
1F	1c	2B-]	4f]
.	.	.	4g
.	.	2A	4a
.	.	.	4f
2BB-y	2B-y	2r	2g
[2B-y	[2d	4B-y	[2f
.	.	4c	.
=26	=26	=26	=26
2B-]	2d]	4d	4f]
.	.	4B-y	4g
2A	2c	1f	4a
.	.	.	4f
1G	2.d	.	1g
.	.	2e	.
.	4B-y	.	.
=27	=27	=27	=27
2F	2c	2f	2r
1F	1A	4F	2.c
.	.	4G	.
.	.	4A	.
.	.	4F	4d
2E	2G	[2c	4e
.	.	.	4c
=28	=28	=28	=28
1D	2A	2c]	4d
.	.	.	4c
.	2F	2BnXi	1f
1C	1G	[1c	.
.	.	.	2e
=29	=29	=29	=29
1FF	[0F	1c]	0f
1FF	.	2r	.
.	.	[2c	.
=30	=30	=30	=30
2r	1F]	2c]	0r
1F	.	2F	.
.	2r	2.c	.
2C	[2c	.	.
.	.	4B-y	.
=31	=31	=31	=31
1.F	2c]	4A	2r
.	.	4G	.
.	2F	2.A	1f
.	2c	.	.
.	.	4G	.
2E	[2c	[2G	2c
=32	=32	=32	=32
1D	2c]	2G]	1f
.	2BnXi	2F	.
[1C	[1c	1G	[1e
=33	=33	=33	=33
1C]	1c]	2r	1e]
.	.	1c	.
2r	1r	.	1r
[2F	.	2F	.
=34	=34	=34	=34
2F]	2r	2.c	1r
2C	1c	.	.
.	.	4B-y	.
[1F	.	4A	2r
.	.	4G	.
.	2F	[2A	[2f
=35	=35	=35	=35
2F]	2c	4A]	2f]
.	.	4G	.
2E	1c	1G	2c
1D	.	.	1f
.	2BnXi	2F	.
=36	=36	=36	=36
0C	0c	1G	2e
.	.	.	1cc
.	.	2r	.
.	.	[2c	2g
=37	=37	=37	=37
2r	2F	2c]	1.cc
1F	2.c	2F	.
.	.	[1f	.
.	4A	.	.
2BB-y	[2d	.	2b-y
=38	=38	=38	=38
1F	4d]	2f]	1a
.	4c	.	.
.	1c	2e	.
1G	.	1d	1g
.	2BnXi	.	.
=39	=39	=39	=39
[0C	1c	0c	2r
.	.	.	2g
.	2.c	.	2a
.	.	.	2g
.	4B-y	.	.
=40	=40	=40	=40
1C]	1G	2r	2e
.	.	2c	2e
1r	1r	2d	2f
.	.	2c	2g
=41	=41	=41	=41
0r	0r	2A	4c
.	.	.	4d
.	.	2A	4e
.	.	.	4c
.	.	2B-y	2d
.	.	2c	2e
=42	=42	=42	=42
0r	0r	4F	4d
.	.	4G	4c
.	.	4A	2f
.	.	4F	.
.	.	2G	2e
.	.	2A	2f
=43	=43	=43	=43
2r	0r	4G	2d
.	.	4F	.
2G	.	2B-y	2g
2A	.	2A	2f
2G	.	2B-y	[2g
=44	=44	=44	=44
2E	2r	2G	2g]
2E	2G	1c	4f
.	.	.	4e
2F	2A	.	1d
2G	2G	2BnXi	.
=45	=45	=45	=45
4C	2E	1c	1c
4D	.	.	.
4E	2E	.	.
4C	.	.	.
2D	2F	1r	1r
4C	2G	.	.
4D	.	.	.
=46	=46	=46	=46
4E	4C	0r	0r
4F	4D	.	.
2G	4E	.	.
.	4F	.	.
4E	4G	.	.
4F	4A	.	.
4G	4B-y	.	.
4E	4G	.	.
=47	=47	=47	=47
2F	4A	2r	0r
.	4B-y	.	.
2A	4c	2c	.
.	4A	.	.
2G	4B-y	1d	.
.	4A	.	.
[2F	4G	.	.
.	4F	.	.
=48	=48	=48	=48
2F]	1G	1c	2r
2E	.	.	2g
2D	1F	2r	1a
2F	.	2f	.
=49	=49	=49	=49
1C	0r	2e	2g
.	.	2c	2.cc
1r	.	2d	.
.	.	.	4b-y
.	.	2e	2g
=50	=50	=50	=50
1r	0r	2c	2a
.	.	2.d	2b-y
2r	.	.	2g
.	.	4c	.
2C	.	[2c	[2a
=51	=51	=51	=51
1D	1r	2c]	2a]
.	.	2BnXi	4g
.	.	.	4f
1C	2r	[1c	1e
.	2G	.	.
=52	=52	=52	=52
2r	1A	0c]	0r
2F	.	.	.
2E	2G	.	.
2C	2c	.	.
=53	=53	=53	=53
2D	2B-y	0r	0r
2E	2G	.	.
2C	2A	.	.
[2D	2B-y	.	.
=54	=54	=54	=54
4D]	2G	2r	0r
4C	.	.	.
1C	1A	2c	.
.	.	2A	.
2BB-y	4G	2B-y	.
.	4F	.	.
=55	=55	=55	=55
1C	1E	2G	2r
.	.	1c	2g
1r	1r	.	2e
.	.	4B-y	2f
.	.	4A	.
=56	=56	=56	=56
2r	0r	2B-y	1d
2G	.	2B-y	.
2E	.	2c	2c
2F	.	[2A	[2f
=57	=57	=57	=57
1D	1r	2A]	2f]
.	.	4G	4e
.	.	4F	4d
2C	2r	2G	2e
2F	2c	4F	[2a
.	.	4G	.
=58	=58	=58	=58
2F	2A	4A	2a]
.	.	4F	.
4E	2B-y	2f	4g
4D	.	.	4f
2E	2G	2r	2g
[2F	[2c	4F	[2a
.	.	4G	.
=59	=59	=59	=59
2F]	2c]	4A	2a]
.	.	4F	.
2A	4B-y	1f	4g
.	4A	.	4f
1G	2B-y	.	1g
.	2B-y	2e	.
=60	=60	=60	=60
2.F	2c	2f	2a
.	1A	1c	1f
4E	.	.	.
1D	.	.	.
.	4G	2B-y	4e
.	4F	.	4d
=61	=61	=61	=61
2C	2G	2c	2e
1F	2A	4F	2.f
.	.	4G	.
.	2F	4A	.
.	.	4F	4e
2BB-y	[2B-y	[2f	2d
=62	=62	=62	=62
1.F	2B-]	2f]	1c
.	2.A	4F	.
.	.	4G	.
.	.	4A	1r
.	4G	4F	.
2E	[2G	[2c	.
=63	=63	=63	=63
1D	2G]	2c]	2r
.	2F	2BnXi	1f
1C	2G	1c	.
.	[2c	.	2e
=64	=64	=64	=64
0r	2c]	2r	1d
.	2BnXi	1f	.
.	1c	.	2c
.	.	2e	[2cc
=65	=65	=65	=65
0r	1G	1d	2cc]
.	.	.	2b-y
.	1r	1c	2.a
.	.	.	4g
=66	=66	=66	=66
0r	0r	2r	4a
.	.	.	4f
.	.	1B-y	2.g
.	.	.	4f
.	.	2A	[2f
=67	=67	=67	=67
0r	1r	1G	2f]
.	.	.	2e
.	2r	1F	1f
.	[2F	.	.
=68	=68	=68	=68
1r	2F]	0r	0r
.	2E	.	.
2r	1D	.	.
[2F	.	.	.
=69	=69	=69	=69
2F]	2C	0r	0r
2E	1c	.	.
1D	.	.	.
.	2B-y	.	.
=70	=70	=70	=70
1C	2.A	0r	0r
.	4G	.	.
2r	4A	.	.
.	4F	.	.
[2BB-y	[2G	.	.
=71	=71	=71	=71
2BB-]	4G]	0r	1r
.	4F	.	.
2AA	1F	.	.
1GG	.	.	2r
.	2E	.	[2b-y
=72	=72	=72	=72
2FF	1F	0r	2b-]
1F	.	.	2a
.	2r	.	1g
2E	[2B-y	.	.
=73	=73	=73	=73
1F	2B-]	0r	2f
.	2A	.	1cc
1r	1G	.	.
.	.	.	2b-y
=74	=74	=74	=74
2r	2F	2r	2.a
1F	1.c	1f	.
.	.	.	4g
.	.	.	4a
.	.	.	4f
2C	.	2e	[2g
=75	=75	=75	=75
2D	2A	1d	4g]
.	.	.	4f
2BB-y	2B-y	.	1f
1C	1G	[1c	.
.	.	.	2e
=76	=76	=76	=76
2FF	2.F	1c]	2.a
1F	.	.	.
.	4E	.	4g
.	2D	2r	4a
.	.	.	4f
2E	2C	2G	[2g
=77	=77	=77	=77
1D	1F	2.A	4g]
.	.	.	4f
.	.	.	1f
.	.	4B-y	.
1C	1G	2c	.
.	.	2G	2e
=78	=78	=78	=78
[0FF	[0F	2.A	[0f
.	.	4B-y	.
.	.	[1cl	.
=79	=79	=79	=79
00FF]	00F]	00c]	00f]
=80||	=80||	=80||	=80||
*M2/1	*M2/1	*M2/1	*M2/1
*met(C|)	*met(C|)	*met(C|)	*met(C|)
!!section: Secunda pars: Qui fecit celum
!!!OMD: Secunda pars: Qui fecit celum
0r	0r	0f	0cc
=81	=81	=81	=81
1r	1r	1c	1cc
[1F	[1c	1f	1a
=82	=82	=82	=82
1F]	1c]	2r	2r
.	.	1f	1a
1C	1c	.	.
.	.	2e	2g
=83	=83	=83	=83
1F	1A	1f	1a
2r	2r	1d	2.f
[2F	[2A	.	.
.	.	.	4g
=84	=84	=84	=84
2F]	2A]	2.c	4a
.	.	.	4f
2E	2G	.	2g
.	.	4e	.
1F	1A	4d	2f
.	.	4c	.
.	.	[2c	[2a
=85	=85	=85	=85
1D	1F	2c]	2a]
.	.	2BnXi	4g
.	.	.	4f
[1C	[1G	1c	1e
=86	=86	=86	=86
1C]	1G]	2r	2r
.	.	2c	2g
1r	1r	2.f	2.a
.	.	4e	4g
=87	=87	=87	=87
0r	0r	2d	2f
.	.	2c	2e
.	.	1d	2d
.	.	.	2b-y
=88	=88	=88	=88
1r	1r	2c	2a
.	.	2B-y	1g
2r	2r	1A	.
2F	2c	.	2f#i
=89	=89	=89	=89
2.B-y	2.d	1G	1g
4A	4c	.	.
2G	2B-y	1r	1r
2F	2A	.	.
=90	=90	=90	=90
1G	2G	0r	1r
.	2e	.	.
2F	2d	.	2r
2E	[2c	.	2c
=91	=91	=91	=91
1D	2c]	1r	4d
.	.	.	4e
.	2BnXi	.	4f
.	.	.	4d
1C	1c	2r	1e
.	.	2c	.
=92	=92	=92	=92
0r	0r	4d	2r
.	.	4e	.
.	.	4f	2f
.	.	4d	.
.	.	2e	4g
.	.	.	4a
.	.	2g	4b-y
.	.	.	4g
=93	=93	=93	=93
2r	1r	2f	2a
2C	.	2e	2cc
4D	2r	1d	2b-y
4E	.	.	.
4F	2F	.	2a
4D	.	.	.
=94	=94	=94	=94
2E	4G	1r	1g
.	4A	.	.
2G	4B-y	.	.
.	4G	.	.
2F	2A	2r	1r
2E	2c	2c	.
=95	=95	=95	=95
1D	2B-y	4d	2r
.	.	4e	.
.	2A	4f	2f
.	.	4d	.
1r	1G	2e	4g
.	.	.	4a
.	.	2g	4b-y
.	.	.	4g
=96	=96	=96	=96
2r	1r	2f	2a
2C	.	2e	2cc
4D	2r	2.d	2b-y
4E	.	.	.
4F	2F	.	2a
4D	.	4f	.
=97	=97	=97	=97
2E	4G	2e	2.g
.	4A	.	.
2G	4B-y	2.d	.
.	4G	.	4b-y
2F	2A	.	2a
.	.	4c	.
2E	2c	2c	[2g
=98	=98	=98	=98
2D	2B-y	1d	4g]
.	.	.	4f
2F	2A	.	1f
1C	1G	1c	.
.	.	.	2e
=99	=99	=99	=99
[0FF	[0F	0A	1f
.	.	.	2r
.	.	.	2f
=100	=100	=100	=100
0FF]	1F]	2r	1cc
.	.	2F	.
.	2r	1c	1a
.	2F	.	.
=101	=101	=101	=101
2r	1c	1A	0r
2FF	.	.	.
1F	1A	2r	.
.	.	2c	.
=102	=102	=102	=102
1D	2r	1f	0r
.	2d	.	.
2r	2c	2e	.
2G	2B-y	[2d	.
=103	=103	=103	=103
2F	2A	2d]	2r
2E	1G	1c	2c
1D	.	.	1f
.	2F	4B-y	.
.	.	4A	.
=104	=104	=104	=104
0r	0G	2B-y	1d
.	.	4G	.
.	.	4A	.
.	.	4B-y	2r
.	.	4c	.
.	.	[2d	2g
=105	=105	=105	=105
1r	1r	4d]	2f
.	.	4c	.
.	.	1c	2e
2r	2r	.	1d
2G	[2d	2B-y	.
=106	=106	=106	=106
2F	2d]	2A	1r
2E	1c	1G	.
1D	.	.	2r
.	2BnXi	2F	2d
=107	=107	=107	=107
4C	2c	0G	2e
4D	.	.	.
4E	2.C	.	4c
4F	.	.	4d
2G	.	.	4e
.	4D	.	4f
2C	4E	.	[2g
.	4F	.	.
=108	=108	=108	=108
2E	2G	2r	2g]
1D	2A	4F	1f
.	.	4G	.
.	2F	4A	.
.	.	4B-y	.
2C	[2G	4c	2e
.	.	4A	.
=109	=109	=109	=109
2BB-y	4G]	2B-y	2d
.	4F	.	.
2C	2E	2A	1c
1GG	1D	1G	.
.	.	.	2BnXi
=110	=110	=110	=110
0C	1C	2r	0c
.	.	2G	.
.	2r	2G	.
.	2G	2G	.
=111	=111	=111	=111
2r	2G	1C	1r
2G	2G	.	.
2G	1C	[1c	2r
2G	.	.	2g
=112	=112	=112	=112
1C	1c	2c]	2g
.	.	2B-y	2g
[1F	2.c	2.A	2c
.	.	.	2f
.	4B-y	4G	.
=113	=113	=113	=113
2F]	2A	2F	2d
2E	1G	1c	2e
2D	.	.	2.f
2D	2F	2B-y	.
.	.	.	8eL
.	.	.	8dJ
=114	=114	=114	=114
0C	1G	2r	0e
.	.	2c	.
.	2r	2c	.
.	2c	2c	.
=115	=115	=115	=115
2r	2c	1F	1r
2c	2c	.	.
2c	1F	[1f	2r
2c	.	.	2cc
=116	=116	=116	=116
1F	1f	2f]	2cc
.	.	2e	2cc
[1B-y	2.f	2.d	2f
.	.	.	2b-y
.	4e	4c	.
=117	=117	=117	=117
2B-]	2d	2B-y	2g
2A	2c	1f	2a
2.G	2c	.	2.b-y
.	2B-y	2e	.
4F	.	.	8aL
.	.	.	8gJ
=118	=118	=118	=118
2D	2.d	1f	1a
1F	.	.	.
.	4c	.	.
.	4d	2r	2r
.	4A	.	.
2A	[2c	2c	2a
=119	=119	=119	=119
1G	2c]	2d	2b-y
.	2B-y	2e	2g
1F	1c	1f	1a
=120	=120	=120	=120
1r	1r	1d	1b-y
2r	2r	1c	1cc
2C	2A	.	.
=121	=121	=121	=121
2D	2B-y	0r	0r
2E	2G	.	.
1F	1A	.	.
=122	=122	=122	=122
1D	1B-y	0r	0r
1C	1c	.	.
=123	=123	=123	=123
0C	0G	0c	0e
=124	=124	=124	=124
1C	1G	1c	1.e
1AA	1A	1c	.
.	.	.	2c
=125	=125	=125	=125
1BB-y	2G	1B-y	1d
.	1F	.	.
1C	.	1G	1c
.	2E	.	.
=126	=126	=126	=126
1FF	0F	1A	[0c
1FF	.	2r	.
.	.	2F	.
=127	=127	=127	=127
2r	1r	2.A	1c]
2FF	.	.	.
.	.	4B-y	.
2AA	2r	2c	1r
2BB-y	2D	2d	.
=128	=128	=128	=128
2C	2E	2c	2r
2D	2F	2B-y	2d
2C	2G	[1c	2e
2F	2A	.	2f
=129	=129	=129	=129
2E	2G	1c]	2g
2.F	1c	.	2.a
.	.	1A	.
4E	.	.	4g
4D	2c	.	4f
4C	.	.	4e
=130	=130	=130	=130
1D	1F	2A	1f
.	.	2B-y	.
[1C	[1G	1c	1e
=131	=131	=131	=131
1C]	1G]	2r	2r
.	.	2c	2g
1r	1r	2.f	2.a
.	.	4e	4g
=132	=132	=132	=132
0r	0r	2d	2f
.	.	2c	2e
.	.	1d	2d
.	.	.	2b-y
=133	=133	=133	=133
1r	1r	2c	2a
.	.	2B-y	1g
2r	2r	1A	.
2F	2c	.	2f#i
=134	=134	=134	=134
2.B-y	2.d	1G	1g
4A	4c	.	.
2G	2B-y	1r	1r
2F	2A	.	.
=135	=135	=135	=135
1G	2G	0r	1r
.	2e	.	.
2F	2d	.	2r
2E	[2c	.	2c
=136	=136	=136	=136
1D	2c]	1r	4d
.	.	.	4e
.	2BnXi	.	4f
.	.	.	4d
1C	1c	2r	1e
.	.	2c	.
=137	=137	=137	=137
0r	0r	4d	2r
.	.	4e	.
.	.	4f	2f
.	.	4d	.
.	.	2e	4g
.	.	.	4a
.	.	2g	4b-y
.	.	.	4g
=138	=138	=138	=138
2r	1r	2f	2a
2C	.	2e	2cc
4D	2r	1d	2b-y
4E	.	.	.
4F	2F	.	2a
4D	.	.	.
=139	=139	=139	=139
2E	4G	1r	1g
.	4A	.	.
2G	4B-y	.	.
.	4G	.	.
2F	2A	2r	1r
2E	2c	2c	.
=140	=140	=140	=140
1D	2B-y	4d	2r
.	.	4e	.
.	2A	4f	2f
.	.	4d	.
1r	1G	2e	4g
.	.	.	4a
.	.	2g	4b-y
.	.	.	4g
=141	=141	=141	=141
2r	1r	2f	2a
2C	.	2e	2cc
4D	2r	2.d	2b-y
4E	.	.	.
4F	2F	.	2a
4D	.	4f	.
=142	=142	=142	=142
2E	4G	2e	2.g
.	4A	.	.
2G	4B-y	1d	.
.	4G	.	4b-y
2F	2A	.	2a
2E	2c	2c	[2g
=143	=143	=143	=143
2D	2B-y	1d	4g]
.	.	.	4f
2F	2A	.	1f
1C	1G	1c	.
.	.	.	2e
=144	=144	=144	=144
1FF	0F	2A	[0f
.	.	2F	.
2r	.	2.A	.
2FF	.	.	.
.	.	4B-y	.
=145	=145	=145	=145
2AA	2r	2c	1f]
2BB-y	2D	2d	.
2C	2E	2c	2r
2D	2F	2B-y	2d
=146	=146	=146	=146
2C	2G	0c	2e
2F	2A	.	2f
2E	2G	.	2g
[2F	[2c	.	[2a
=147	=147	=147	=147
4F]	1c]	1A	4a]
4E	.	.	4g
4D	.	.	4f
4C	.	.	4e
1D	1F	2A	1f
.	.	2B-y	.
=148	=148	=148	=148
0C;	0G;	0c;	0e;
=149	=149	=149	=149
00FFl	00Fl	00cl	00fl
==	==	==	==
*-	*-	*-	*-
!!!system-decoration: [*]
!!!RDF**kern: i = editorial accidental
!!!RDF**kern: l = terminal long
!!!ENC: Benjamin Ory
!!!END: 2021/7/22
!!!EED: Benjamin Ory
!!!EEV: 2021/07/22
!!!YEC: Copyright 2021 Benjamin Ory, All Rights Reserved
!!!ONB: Translated from MusicXML on 2021/07/22